X: 1911
T: Uşşak Sazsemâîsi
C: Kantemiroğlu
O: Turkey
F: http://compmusic.upf.edu/node/140
N: ussak--sazsemaisi--aksaksemai----kantemiroglu
N: makam= ussak
N: form= sazsemaisi
N: usul= aksaksemai = 10/8
M: 10/8
L: 1/16
K: C _2/4B   
Q: 1/4=132
%%MIDI tuningsystem comma53
G4 AAA4BA BcBA G2z2  | BcBc d2e3ddc2Bd4z2  | 
w:  1. HANE  |   | 
A3c BAB3cdc BAG4a2  | g2f2 e2e3fed ced4z2  | 
w:   |   | 
c3d e2e3fe2 d2g2 f2e2  | d4 c2d3edc BAB4z2  | \
w:  TESLİM  |   | 
GAGA B2c2 d2c3BA2 B2c2  | 
w:   | 
d4 A2B3cBA G2A4z2  | c3d e2e3fe2 d2g2 f2e2  | \
w:   |  TESLİM  | 
d4 c2d3edc BAB4z2  | 
w:   | 
GAGA B2c2 d2c3BA2 B2c2  | d4 A2B3cBA G2A4z2  | 
w:   |   | 
A4 gfe3cd3Bc4z2  | cdcd e2e3cd3Bcd c2B2  | 
w:  2. HANE  |   | 
A2G2 A2B3cBA G^FG4z2  | B4 A2BA BcB2 c2d4z2  | 
w:   |   | 
c3d e2e3fe2 d2g2 f2e2  | d4 c2d3edc BAB4z2  | \
w:  TESLİM  |   | 
GAGA B2c2 d2c3BA2 B2c2  | 
w:   | 
d4 A2B3cBA G2A4z2  | c3d e2e3fe2 d2g2 f2e2  | \
w:   |  TESLİM  | 
d4 c2d3edc BAB4z2  | 
w:   | 
GAGA B2c2 d2c3BA2 B2c2  | d4 A2B3cBA G2A4z2  | 
w:   |   | 
a4 g2a4z2 ga_b2 a2g2  | f2e2 d2c3dcB BAd4z2  | \
w:  3. HANE  |   | 
a4 g2a4z2 ga_b2 a2g2  | 
w:  3. HANE  | 
f2e2 d2c3dcB BAd4z2  | c3d e2e3fe2 d2g2 f2e2  | 
w:   |  TESLİM  | 
d4 c2d3edc BAB4z2  | GAGA B2c2 d2c3BA2 B2c2  | 
w:   |   | 
d4 A2B3cBA G2A4z2  | c3d e2e3fe2 d2g2 f2e2  | \
w:   |  TESLİM  | 
d4 c2d3edc BAB4z2  | 
w:   | 
GAGA B2c2 d2c3BA2 B2c2  | d4 A2B3cBA G2A4z2  | 
w:   |   | 
z24  | A4f4e4fefge4z4  | g3fe2d2c3BcBcdA4z4  | 
w:  |  4. HANE  |   | 
A3cB2A2G2^FEF2G2A2B2c2A2  | B4d3cc3BB3AA4z4  | 
w:   |   | 
A4f4e4fefge4z4  | g3fe2d2c3BcBcdA4z4  | 
w:  4. HANE  |   | 
A3cB2A2G2^FEF2G2A2B2c2A2  | B2c2d2e2d3cB2c2d4z4  | 
w:   |   | 
z20  | c3d e2e3fe2 d2g2 f2e2  | d4 c2d3edc BAB4z2  | 
w:  |  TESLİM  |   | 
GAGA B2c2 d2c3BA2 B2c2  | d4 A2B3cBA G2A4z2  | 
w:   |   | 
c3d e2e3fe2 d2g2 f2e2  | d4 c2d3edc BAB4z2  | \
w:  TESLİM  |   | 
GAGA B2c2 d2c3BA2 B2c2  | 
w:   | 
d4 A2B3cBA G2A4z2  | |


